X:66
T:Drunken Landlady, The
R:reel
H:Also played in Ador, #888
D:Mary Bergin: Feadoga Stain.
Z:id:hn-reel-66
M:C|
K:Edor
BE~E2 BAFA|BE~E2 BAFA|ABAF D2FD|FA~A2 BAFA|
BE~E2 BAFA|BE~E2 BAFA|A2Bc dfec|dBAF E2FA:|
|:Beed e2de|f2df efdB|ABAF D2FD|FA~A2 BAFA|
Beed e2de|f2df efdB|A2Bc dfec|dBAF E2AF:|
<end>
<start>
